X: 1
T:the Hawk
R:Hornpipe
O:England
M:4/4
C:James Hill
A:Northumberland
K:E
B|\
e2ge Begf|egfa gbag|f2af cfag|fedc BcdB|\
e2ge Begf|egfa gbag|
fefg aBcd|eBgf e3::\
(3B/B/B/|\
Bbge Bafd|Bged edcB|
cBdc edfe|gfag f2fg|\
abga fgef|dbca BgAf|defg aBcd|eBgf (e2[e)e']:|
